images/105066.svg

<?xml version="1.0" encoding="UTF-8"?>
<svg xmlns="http://www.w3.org/2000/svg" xmlns:xlink="http://www.w3.org/1999/xlink" width="300pt" height="300pt" viewBox="0 0 300 300" version="1.1">
<defs>
<g>
<symbol overflow="visible" id="glyph0-0">
<path style="stroke:none;" d="M 0.640625 2.296875 L 0.640625 -9.171875 L 7.140625 -9.171875 L 7.140625 2.296875 Z M 1.375 1.578125 L 6.421875 1.578125 L 6.421875 -8.4375 L 1.375 -8.4375 Z M 1.375 1.578125 "/>
</symbol>
<symbol overflow="visible" id="glyph0-1">
<path style="stroke:none;" d="M 1.28125 -9.484375 L 3 -9.484375 L 7.203125 -1.546875 L 7.203125 -9.484375 L 8.453125 -9.484375 L 8.453125 0 L 6.71875 0 L 2.515625 -7.921875 L 2.515625 0 L 1.28125 0 Z M 1.28125 -9.484375 "/>
</symbol>
<symbol overflow="visible" id="glyph0-2">
<path style="stroke:none;" d="M 5.125 -8.609375 C 4.1875 -8.609375 3.441406 -8.257812 2.890625 -7.5625 C 2.347656 -6.875 2.078125 -5.929688 2.078125 -4.734375 C 2.078125 -3.535156 2.347656 -2.585938 2.890625 -1.890625 C 3.441406 -1.203125 4.1875 -0.859375 5.125 -0.859375 C 6.050781 -0.859375 6.785156 -1.203125 7.328125 -1.890625 C 7.878906 -2.585938 8.15625 -3.535156 8.15625 -4.734375 C 8.15625 -5.929688 7.878906 -6.875 7.328125 -7.5625 C 6.785156 -8.257812 6.050781 -8.609375 5.125 -8.609375 Z M 5.125 -9.65625 C 6.445312 -9.65625 7.503906 -9.207031 8.296875 -8.3125 C 9.097656 -7.414062 9.5 -6.222656 9.5 -4.734375 C 9.5 -3.234375 9.097656 -2.035156 8.296875 -1.140625 C 7.503906 -0.253906 6.445312 0.1875 5.125 0.1875 C 3.789062 0.1875 2.722656 -0.253906 1.921875 -1.140625 C 1.128906 -2.035156 0.734375 -3.234375 0.734375 -4.734375 C 0.734375 -6.222656 1.128906 -7.414062 1.921875 -8.3125 C 2.722656 -9.207031 3.789062 -9.65625 5.125 -9.65625 Z M 5.125 -9.65625 "/>
</symbol>
</g>
</defs>
<g id="surface55837">
<rect x="0" y="0" width="300" height="300" style="fill:rgb(100%,100%,100%);fill-opacity:1;stroke:none;"/>
<path style="fill:none;stroke-width:1.2;stroke-linecap:butt;stroke-linejoin:miter;stroke:rgb(0%,0%,0%);stroke-opacity:1;stroke-miterlimit:10;" d="M 112.894531 195.8125 L 144.050781 182.359375 "/>
<path style=" stroke:none;fill-rule:nonzero;fill:rgb(0%,0%,0%);fill-opacity:1;" d="M 171.28125 202.613281 L 147.625 177.554688 L 140.476562 187.164062 Z M 171.28125 202.613281 "/>
<path style="fill:none;stroke-width:1.2;stroke-linecap:butt;stroke-linejoin:miter;stroke:rgb(0%,0%,0%);stroke-opacity:1;stroke-miterlimit:10;" d="M 171.28125 202.613281 L 167.355469 236.324219 "/>
<path style="fill:none;stroke-width:1.2;stroke-linecap:butt;stroke-linejoin:miter;stroke:rgb(0%,0%,0%);stroke-opacity:1;stroke-miterlimit:10;" d="M 202.4375 189.160156 L 171.28125 202.613281 "/>
<path style="fill:none;stroke-width:1.2;stroke-linecap:butt;stroke-linejoin:miter;stroke:rgb(0%,0%,0%);stroke-opacity:1;stroke-miterlimit:10;" d="M 145.242188 180.851562 L 171.28125 202.613281 "/>
<path style="fill:none;stroke-width:1.2;stroke-linecap:butt;stroke-linejoin:miter;stroke:rgb(0%,0%,0%);stroke-opacity:1;stroke-miterlimit:10;" d="M 167.355469 236.324219 L 194.585938 256.578125 "/>
<path style="fill:none;stroke-width:1.2;stroke-linecap:butt;stroke-linejoin:miter;stroke:rgb(0%,0%,0%);stroke-opacity:1;stroke-miterlimit:10;" d="M 194.585938 256.578125 L 225.742188 243.125 "/>
<path style="fill:none;stroke-width:1.2;stroke-linecap:butt;stroke-linejoin:miter;stroke:rgb(0%,0%,0%);stroke-opacity:1;stroke-miterlimit:10;" d="M 225.742188 243.125 L 227.703125 226.269531 "/>
<path style="fill:none;stroke-width:1.2;stroke-linecap:butt;stroke-linejoin:miter;stroke:rgb(0%,0%,100%);stroke-opacity:1;stroke-miterlimit:10;" d="M 227.703125 226.269531 L 229.667969 209.414062 "/>
<path style="fill:none;stroke-width:1;stroke-linecap:butt;stroke-linejoin:miter;stroke:rgb(0%,0%,0%);stroke-opacity:1;stroke-miterlimit:10;" d="M 202.4375 189.160156 L 202.4375 189.160156 M 204.496094 191.339844 L 205.121094 190.503906 M 206.554688 193.523438 L 207.800781 191.847656 M 208.617188 195.703125 L 210.484375 193.195312 M 210.675781 197.886719 L 213.164062 194.539062 M 212.734375 200.066406 L 215.847656 195.882812 M 214.792969 202.25 L 218.527344 197.230469 M 216.851562 204.429688 L 221.210938 198.574219 M 218.914062 206.613281 L 223.890625 199.917969 M 220.972656 208.792969 L 226.574219 201.261719 M 223.03125 210.972656 L 229.253906 202.609375 M 225.089844 213.15625 L 231.9375 203.953125 M 226.09375 214.21875 L 233.242188 204.609375 "/>
<path style="fill:none;stroke-width:1.2;stroke-linecap:butt;stroke-linejoin:miter;stroke:rgb(0%,0%,0%);stroke-opacity:1;stroke-miterlimit:10;" d="M 260.824219 195.957031 L 245.246094 202.6875 "/>
<path style="fill:none;stroke-width:1.2;stroke-linecap:butt;stroke-linejoin:miter;stroke:rgb(0%,0%,100%);stroke-opacity:1;stroke-miterlimit:10;" d="M 245.246094 202.6875 L 229.667969 209.414062 "/>
<path style=" stroke:none;fill-rule:nonzero;fill:rgb(100%,100%,100%);fill-opacity:1;" d="M 224.667969 201.414062 L 234.667969 201.414062 L 234.667969 217.414062 L 224.667969 217.414062 Z M 224.667969 201.414062 "/>
<g style="fill:rgb(0%,0%,100%);fill-opacity:1;">
  <use xlink:href="#glyph0-1" x="224.667969" y="213.790039"/>
</g>
<path style="fill:none;stroke-width:1.2;stroke-linecap:butt;stroke-linejoin:miter;stroke:rgb(0%,0%,0%);stroke-opacity:1;stroke-miterlimit:10;" d="M 202.4375 189.160156 L 206.363281 155.449219 "/>
<path style="fill:none;stroke-width:1.2;stroke-linecap:butt;stroke-linejoin:miter;stroke:rgb(0%,0%,0%);stroke-opacity:1;stroke-miterlimit:10;" d="M 206.363281 155.449219 L 237.519531 141.996094 "/>
<path style="fill:none;stroke-width:1.2;stroke-linecap:butt;stroke-linejoin:miter;stroke:rgb(0%,0%,0%);stroke-opacity:1;stroke-miterlimit:10;" d="M 206.3125 146.773438 L 231.238281 136.007812 "/>
<path style="fill:none;stroke-width:1.2;stroke-linecap:butt;stroke-linejoin:miter;stroke:rgb(0%,0%,100%);stroke-opacity:1;stroke-miterlimit:10;" d="M 183.941406 129.976562 L 195.152344 142.714844 "/>
<path style="fill:none;stroke-width:1.2;stroke-linecap:butt;stroke-linejoin:miter;stroke:rgb(0%,0%,0%);stroke-opacity:1;stroke-miterlimit:10;" d="M 195.152344 142.714844 L 206.363281 155.449219 "/>
<path style="fill:none;stroke-width:1.2;stroke-linecap:butt;stroke-linejoin:miter;stroke:rgb(0%,0%,0%);stroke-opacity:1;stroke-miterlimit:10;" d="M 237.519531 141.996094 L 264.75 162.25 "/>
<path style="fill:none;stroke-width:1.2;stroke-linecap:butt;stroke-linejoin:miter;stroke:rgb(0%,0%,0%);stroke-opacity:1;stroke-miterlimit:10;" d="M 237.519531 141.996094 L 234.351562 108.207031 "/>
<path style="fill:none;stroke-width:1.2;stroke-linecap:butt;stroke-linejoin:miter;stroke:rgb(0%,0%,0%);stroke-opacity:1;stroke-miterlimit:10;" d="M 264.75 162.25 L 260.824219 195.957031 "/>
<path style="fill:none;stroke-width:1.2;stroke-linecap:butt;stroke-linejoin:miter;stroke:rgb(0%,0%,0%);stroke-opacity:1;stroke-miterlimit:10;" d="M 234.351562 108.207031 L 257.339844 83.242188 "/>
<path style="fill:none;stroke-width:1.2;stroke-linecap:butt;stroke-linejoin:miter;stroke:rgb(0%,0%,0%);stroke-opacity:1;stroke-miterlimit:10;" d="M 230.777344 100.300781 L 249.167969 80.328125 "/>
<path style="fill:none;stroke-width:1.2;stroke-linecap:butt;stroke-linejoin:miter;stroke:rgb(0%,0%,0%);stroke-opacity:1;stroke-miterlimit:10;" d="M 201.238281 100.777344 L 234.351562 108.207031 "/>
<path style="fill:none;stroke-width:1.2;stroke-linecap:butt;stroke-linejoin:miter;stroke:rgb(0%,0%,0%);stroke-opacity:1;stroke-miterlimit:10;" d="M 257.339844 83.242188 L 247.21875 50.851562 "/>
<path style="fill:none;stroke-width:1.2;stroke-linecap:butt;stroke-linejoin:miter;stroke:rgb(0%,0%,0%);stroke-opacity:1;stroke-miterlimit:10;" d="M 247.21875 50.851562 L 214.101562 43.421875 "/>
<path style="fill:none;stroke-width:1.2;stroke-linecap:butt;stroke-linejoin:miter;stroke:rgb(0%,0%,0%);stroke-opacity:1;stroke-miterlimit:10;" d="M 242.15625 57.898438 L 215.667969 51.957031 "/>
<path style="fill:none;stroke-width:1.2;stroke-linecap:butt;stroke-linejoin:miter;stroke:rgb(0%,0%,0%);stroke-opacity:1;stroke-miterlimit:10;" d="M 214.101562 43.421875 L 191.113281 68.386719 "/>
<path style="fill:none;stroke-width:1.2;stroke-linecap:butt;stroke-linejoin:miter;stroke:rgb(0%,0%,0%);stroke-opacity:1;stroke-miterlimit:10;" d="M 191.113281 68.386719 L 201.238281 100.777344 "/>
<path style="fill:none;stroke-width:1.2;stroke-linecap:butt;stroke-linejoin:miter;stroke:rgb(0%,0%,0%);stroke-opacity:1;stroke-miterlimit:10;" d="M 199.746094 69.242188 L 207.847656 95.15625 "/>
<path style="fill:none;stroke-width:1.2;stroke-linecap:butt;stroke-linejoin:miter;stroke:rgb(0%,0%,0%);stroke-opacity:1;stroke-miterlimit:10;" d="M 201.238281 100.777344 L 192.589844 115.378906 "/>
<path style="fill:none;stroke-width:1.2;stroke-linecap:butt;stroke-linejoin:miter;stroke:rgb(0%,0%,100%);stroke-opacity:1;stroke-miterlimit:10;" d="M 192.589844 115.378906 L 183.941406 129.976562 "/>
<path style="fill:none;stroke-width:1.2;stroke-linecap:butt;stroke-linejoin:miter;stroke:rgb(0%,0%,100%);stroke-opacity:1;stroke-miterlimit:10;" d="M 183.941406 129.976562 L 167.503906 138.695312 "/>
<path style="fill:none;stroke-width:1.2;stroke-linecap:butt;stroke-linejoin:miter;stroke:rgb(0%,0%,0%);stroke-opacity:1;stroke-miterlimit:10;" d="M 167.503906 138.695312 L 151.066406 147.417969 "/>
<path style=" stroke:none;fill-rule:nonzero;fill:rgb(100%,100%,100%);fill-opacity:1;" d="M 178.941406 121.976562 L 188.941406 121.976562 L 188.941406 137.976562 L 178.941406 137.976562 Z M 178.941406 121.976562 "/>
<g style="fill:rgb(0%,0%,100%);fill-opacity:1;">
  <use xlink:href="#glyph0-1" x="178.941406" y="134.352539"/>
</g>
<path style="fill:none;stroke-width:1.2;stroke-linecap:butt;stroke-linejoin:miter;stroke:rgb(0%,0%,0%);stroke-opacity:1;stroke-miterlimit:10;" d="M 151.066406 147.417969 L 145.242188 180.851562 "/>
<path style="fill:none;stroke-width:1.2;stroke-linecap:butt;stroke-linejoin:miter;stroke:rgb(0%,0%,0%);stroke-opacity:1;stroke-miterlimit:10;" d="M 158.351562 152.132812 L 153.691406 178.878906 "/>
<path style="fill:none;stroke-width:1.2;stroke-linecap:butt;stroke-linejoin:miter;stroke:rgb(0%,0%,0%);stroke-opacity:1;stroke-miterlimit:10;" d="M 151.066406 147.417969 L 125.027344 125.65625 "/>
<path style="fill:none;stroke-width:1.2;stroke-linecap:butt;stroke-linejoin:miter;stroke:rgb(0%,0%,0%);stroke-opacity:1;stroke-miterlimit:10;" d="M 128.957031 126.339844 L 131.871094 109.625 "/>
<path style="fill:none;stroke-width:1.2;stroke-linecap:butt;stroke-linejoin:miter;stroke:rgb(100%,0%,0%);stroke-opacity:1;stroke-miterlimit:10;" d="M 131.871094 109.625 L 134.785156 92.90625 "/>
<path style="fill:none;stroke-width:1.2;stroke-linecap:butt;stroke-linejoin:miter;stroke:rgb(0%,0%,0%);stroke-opacity:1;stroke-miterlimit:10;" d="M 121.09375 124.96875 L 124.003906 108.253906 "/>
<path style="fill:none;stroke-width:1.2;stroke-linecap:butt;stroke-linejoin:miter;stroke:rgb(100%,0%,0%);stroke-opacity:1;stroke-miterlimit:10;" d="M 124.003906 108.253906 L 126.917969 91.535156 "/>
<path style="fill:none;stroke-width:1.2;stroke-linecap:butt;stroke-linejoin:miter;stroke:rgb(0%,0%,0%);stroke-opacity:1;stroke-miterlimit:10;" d="M 125.027344 125.65625 L 109.09375 131.492188 "/>
<path style="fill:none;stroke-width:1.2;stroke-linecap:butt;stroke-linejoin:miter;stroke:rgb(100%,0%,0%);stroke-opacity:1;stroke-miterlimit:10;" d="M 109.09375 131.492188 L 93.160156 137.328125 "/>
<path style=" stroke:none;fill-rule:nonzero;fill:rgb(100%,100%,100%);fill-opacity:1;" d="M 125.851562 84.222656 L 136.851562 84.222656 L 136.851562 100.222656 L 125.851562 100.222656 Z M 125.851562 84.222656 "/>
<g style="fill:rgb(100%,0%,0%);fill-opacity:1;">
  <use xlink:href="#glyph0-2" x="125.851562" y="96.598633"/>
</g>
<path style="fill:none;stroke-width:1.2;stroke-linecap:butt;stroke-linejoin:miter;stroke:rgb(100%,0%,0%);stroke-opacity:1;stroke-miterlimit:10;" d="M 93.160156 137.328125 L 80.136719 126.445312 "/>
<path style="fill:none;stroke-width:1.2;stroke-linecap:butt;stroke-linejoin:miter;stroke:rgb(0%,0%,0%);stroke-opacity:1;stroke-miterlimit:10;" d="M 80.136719 126.445312 L 67.117188 115.566406 "/>
<path style=" stroke:none;fill-rule:nonzero;fill:rgb(100%,100%,100%);fill-opacity:1;" d="M 88.160156 129.328125 L 99.160156 129.328125 L 99.160156 145.328125 L 88.160156 145.328125 Z M 88.160156 129.328125 "/>
<g style="fill:rgb(100%,0%,0%);fill-opacity:1;">
  <use xlink:href="#glyph0-2" x="88.160156" y="141.704102"/>
</g>
<path style="fill:none;stroke-width:1.2;stroke-linecap:butt;stroke-linejoin:miter;stroke:rgb(0%,0%,0%);stroke-opacity:1;stroke-miterlimit:10;" d="M 67.117188 115.566406 L 35.25 127.234375 "/>
<path style="fill:none;stroke-width:1.2;stroke-linecap:butt;stroke-linejoin:miter;stroke:rgb(100%,0%,0%);stroke-opacity:1;stroke-miterlimit:10;" d="M 140.050781 178.359375 L 148.050781 178.359375 L 148.050781 186.359375 L 140.050781 186.359375 Z M 140.050781 178.359375 "/>
</g>
</svg>

<svg xmlns="http://www.w3.org/2000/svg" xmlns:xlink="http://www.w3.org/1999/xlink" width="300pt" height="300pt" viewBox="0 0 300 300"><defs><symbol overflow="visible"><path d="M.64 2.297v-11.47h6.5v11.47zm.735-.72h5.047V-8.436H1.375zm0 0"/></symbol><symbol overflow="visible" id="a"><path d="M1.28-9.484H3l4.203 7.937v-7.937h1.25V0H6.72L2.515-7.922V0H1.28zm0 0"/></symbol><symbol overflow="visible" id="b"><path d="M5.125-8.61c-.938 0-1.684.352-2.234 1.047-.542.688-.812 1.633-.812 2.83 0 1.198.27 2.147.813 2.842.55.687 1.297 1.03 2.235 1.03.926 0 1.66-.343 2.203-1.03.55-.696.828-1.645.828-2.844 0-1.196-.277-2.14-.828-2.829-.543-.695-1.277-1.046-2.203-1.046zm0-1.046c1.32 0 2.38.45 3.172 1.344.8.898 1.203 2.09 1.203 3.578 0 1.5-.402 2.7-1.203 3.593C7.504-.255 6.445.186 5.125.186c-1.336 0-2.402-.44-3.203-1.328C1.13-2.036.734-3.235.734-4.735c0-1.49.395-2.68 1.188-3.579.8-.894 1.867-1.343 3.203-1.343zm0 0"/></symbol></defs><g><path fill="#fff" d="M0 0h300v300H0z"/><path d="M112.895 195.813l31.156-13.454" stroke-width="1.2" stroke="#000" stroke-miterlimit="10" fill="none"/><path d="M171.28 202.613l-23.655-25.058-7.148 9.61zm0 0"/><path d="M171.28 202.613l-3.925 33.71M202.438 189.16l-31.157 13.453M145.242 180.852l26.04 21.76M167.355 236.324l27.23 20.254M194.586 256.578l31.156-13.453M225.742 243.125l1.96-16.855" stroke-width="1.2" stroke="#000" stroke-miterlimit="10" fill="none"/><path d="M227.703 226.27l1.965-16.856" stroke-width="1.2" stroke="#00f" stroke-miterlimit="10" fill="none"/><path d="M202.438 189.16m2.058 2.18l.625-.836m1.435 3.02l1.246-1.676m.817 3.855l1.867-2.508m.192 4.692l2.488-3.348m-.43 5.526l3.114-4.183m-1.055 6.367l3.734-5.02m-1.675 7.2l4.36-5.856m-2.298 8.04l4.977-6.696m-2.917 8.875l5.6-7.53m-3.542 9.71l6.224-8.364m-4.164 10.546l6.847-9.203m-5.843 10.266l7.148-9.61" stroke="#000" stroke-miterlimit="10" fill="none"/><path d="M260.824 195.957l-15.578 6.73" stroke-width="1.2" stroke="#000" stroke-miterlimit="10" fill="none"/><path d="M245.246 202.688l-15.578 6.726" stroke-width="1.2" stroke="#00f" stroke-miterlimit="10" fill="none"/><path d="M224.668 201.414h10v16h-10zm0 0" fill="#fff"/><use xlink:href="#a" x="224.668" y="213.79" fill="#00f"/><path d="M202.438 189.16l3.925-33.71M206.363 155.45l31.157-13.454M206.313 146.773l24.925-10.765" stroke-width="1.2" stroke="#000" stroke-miterlimit="10" fill="none"/><path d="M183.94 129.977l11.212 12.738" stroke-width="1.2" stroke="#00f" stroke-miterlimit="10" fill="none"/><path d="M195.152 142.715l11.21 12.734M237.52 141.996l27.23 20.254M237.52 141.996l-3.168-33.79M264.75 162.25l-3.926 33.707M234.352 108.207l22.988-24.965M230.777 100.3l18.39-19.972M201.238 100.777l33.114 7.43M257.34 83.242l-10.12-32.39M247.22 50.852l-33.118-7.43M242.156 57.898l-26.488-5.94M214.102 43.422l-22.99 24.965M191.113 68.387l10.125 32.39M199.746 69.242l8.102 25.914M201.238 100.777l-8.648 14.602" stroke-width="1.2" stroke="#000" stroke-miterlimit="10" fill="none"/><path d="M192.59 115.38l-8.65 14.597M183.94 129.977l-16.436 8.718" stroke-width="1.2" stroke="#00f" stroke-miterlimit="10" fill="none"/><path d="M167.504 138.695l-16.438 8.723" stroke-width="1.2" stroke="#000" stroke-miterlimit="10" fill="none"/><path d="M178.94 121.977h10v16h-10zm0 0" fill="#fff"/><use xlink:href="#a" x="178.941" y="134.353" fill="#00f"/><path d="M151.066 147.418l-5.824 33.434M158.352 152.133l-4.66 26.746M151.066 147.418l-26.04-21.762M128.957 126.34l2.914-16.715" stroke-width="1.2" stroke="#000" stroke-miterlimit="10" fill="none"/><path d="M131.87 109.625l2.915-16.72" stroke-width="1.2" stroke="#f00" stroke-miterlimit="10" fill="none"/><path d="M121.094 124.97l2.91-16.716" stroke-width="1.2" stroke="#000" stroke-miterlimit="10" fill="none"/><path d="M124.004 108.254l2.914-16.72" stroke-width="1.2" stroke="#f00" stroke-miterlimit="10" fill="none"/><path d="M125.027 125.656l-15.933 5.836" stroke-width="1.2" stroke="#000" stroke-miterlimit="10" fill="none"/><path d="M109.094 131.492l-15.934 5.836" stroke-width="1.2" stroke="#f00" stroke-miterlimit="10" fill="none"/><path d="M125.852 84.223h11v16h-11zm0 0" fill="#fff"/><use xlink:href="#b" x="125.852" y="96.599" fill="#f00"/><path d="M93.16 137.328l-13.023-10.883" stroke-width="1.2" stroke="#f00" stroke-miterlimit="10" fill="none"/><path d="M80.137 126.445l-13.02-10.88" stroke-width="1.2" stroke="#000" stroke-miterlimit="10" fill="none"/><path d="M88.16 129.328h11v16h-11zm0 0" fill="#fff"/><use xlink:href="#b" x="88.16" y="141.704" fill="#f00"/><path d="M67.117 115.566L35.25 127.234" stroke-width="1.2" stroke="#000" stroke-miterlimit="10" fill="none"/><path d="M140.05 178.36h8v8h-8zm0 0" stroke-width="1.2" stroke="#f00" stroke-miterlimit="10" fill="none"/></g></svg>
